X:1
T: Oh Mother, What Shall I Do?
N:
C:
S:
A:
O:
R:
M:3/4
K:D
I:speed 150
%W: A1
% voice 1 (1 lines, 27 notes)
K:D
M:3/4
L:1/16
D6 E2 D4 |F4 A4 B4 |d6 e2 f4 |d6 B2 A4 |d4 B2 d2 A2 d2 |B8 b4 |a4 b2 a2 g2 f2 |f4 e4 d4 |
%W:
% voice 1 (1 lines, 31 notes)
F6 E2 D4 |F4 A4 B4 |d2 c2 d2 e2 f2 e2 |d6 B2 A4 |B6 d2 B2 d2 |B2 A2 F4 A4 |B2 c2 d4 F2 G2 |F4 E4 D4 |
%W: A2
% voice 1 (1 lines, 27 notes)
D6 E2 D4 |F4 A4 B4 |d6 e2 f4 |d6 B2 A4 |d4 B2 d2 A2 d2 |B8 b4 |a4 b2 a2 g2 f2 |f4 e4 d4 |
%W:
% voice 1 (1 lines, 31 notes)
F6 E2 D4 |F4 A4 B4 |d2 c2 d2 e2 f2 e2 |d6 B2 A4 |B6 d2 B2 d2 |B2 A2 F4 A4 |B2 c2 d4 F2 G2 |F4 E4 D4 |
%W: B1
% voice 1 (1 lines, 31 notes)
f2 g2 a4 a2 b2 |a4 f4 a4 |b4 a4 g2 a2 |g4 f2 e2 f2 g2 |a4 b4 b4 |b8 a4 |d2 c2 d2 e2 f2 g2 |f4 e4 d4 |
%W:
% voice 1 (1 lines, 32 notes)
f2 e2 d2 e2 f2 g2 |a4 f4 a4 |b4 a4 g4 |a2 g2 f2 e2 d4 |B6 d2 B2 d2 |A6 B2 A2 B2 |G6 A2 F2 G2 |F4 E4 D4 |
%W: B2
% voice 1 (1 lines, 31 notes)
f2 g2 a4 a2 b2 |a4 f4 a4 |b4 a4 g2 a2 |g4 f2 e2 f2 g2 |a4 b4 b4 |b8 a4 |d2 c2 d2 e2 f2 g2 |f4 e4 d4 |
%W:
% voice 1 (1 lines, 32 notes)
f2 e2 d2 e2 f2 g2 |a4 f4 a4 |b4 a4 g4 |a2 g2 f2 e2 d4 |B6 d2 B2 d2 |A6 B2 A2 B2 |G6 A2 F2 G2 |F4 E4 D4 ||
